X: 1
T:The Humours of Tulla
C:Arranged by Michael Keyes
K:D
M:4/4
L:1/8
fe|d2 Ad BdAB|d2 fd edBc|d2 Ad BdAd|cdef g2 :|
fg| af f2 df f2|af f2 ge e2|af f2 dfed|(3Bcd ef g3 ^g|
af f2 dfef|af f2 ge e2 af f2 dfed cdef g2 |>|
